X:84
T:Cat And The Dog, The
R:slip jig
H:Related to #45
D:Julie Fowlis
Z:hn-slipjig-84
M:9/8
L:1/8
K:G
~B3 BAB g2e | ~B3 BAB dBA | ~B3 BAB g2e | agf g2e dBA :|
|: Bee efe g2e | Bee efe dBA | Bee efe g2e | agf g2e dBA :|
|: ~G3 BGB e2d | ~G3 BGB dBA | ~G3 BGB e2d | Bee ege dBA :|
|: B2a ged e2d | B2a gfe dBA |1 B2a ged e2d | Bee ege dBA :|
[2 ~B3 BAB g2e | agf g2e dBA || 

